X:1
T:Title
%%score { ( 1 3 ) | ( 2 4 ) }
L:1/8
Q:1/4=186
M:6/4
K:Bb
V:1 treble nm="Grand Piano"
V:3 treble 
V:2 bass 
V:4 bass 
V:1
 [DB]6 [CF]4 [CE]2 | [B,D]6- [B,D]4 [CD]2 | [=B,G]6 [B,E]4 [B,D]2 | C12 | G6 A4 B2 | B6- B4 G2 | %6
w: Paul~Rader * *||||||
 F6 E6 | D12 | [B,DG]6 [G,DG]4 [G,DG]2 | A12 | B6 B4 B2 | c12 | [Fd]6 [FB]4 [EG]2 | %13
w: |||||||
 [DF]6- [DF]4 [FB]2 | [Gc]6 d4 c2 | [DB]12 | A6 A4 B2 | c6 c4 c2 | [Dd]6 [EB]4 [EG]2 | [DF]12 | %20
w: |||||||
 B6 B4 B2 | [=EB]6 [EB]4 [Ec]2 | [=Ed]6 [Ac]4 [GB]2 | c12 | [Fd]6 [Fd]4 [Ec]2 | [DB]6 [FB]4 [FB]2 | %26
w: ||||||
 c6 B4 A2 | G12 | B6 A4 G2 | F6 B4 c2 | d6 c4 [DB]2 | [DB]12 |] %32
w: ||||||
V:2
 [B,,F,]6 [A,,F,]4 [F,,F,]2 | [B,,F,]6- [B,,F,]4 [A,,^F,]2 | [G,,F,]6 [G,,G,]4 [G,,F,]2 | %3
 [C,E,]12 | [E,B,E]6 [=E,A,_D]4 [E,G,D]2 | [F,D]6- [F,D]4 [F,B,E]2 | [F,A,D]6 [F,C]6 | %7
 [B,,F,B,]12 | G,,6 B,,4 B,,2 | [D,D]6- [D,D]4 [D,D]2 | [G,DG]6 [G,B,D]4[K:bass] [G,B,D]2 | %11
 [F,E]12 | [B,,B,]6 [D,B,]4 [E,B,]2 | [B,,B,]6- [B,,B,]4 [D,B,]2 | [E,B,]6 [F,A,F]4 [F,E]2 | %15
 [B,,F,]12 | [F,CE]6 [F,CE]4 [G,CE]2 | [A,CE]6 [F,A,F]4 [F,E]2 | [B,,F,]6 [B,,G,]4 [B,,A,]2 | %19
 [B,,B,]12 | [G,D]6 [G,D]4 [G,D]2 | [C,G,]6 [C,G,]4 [C,A,]2 | [C,B,]6 [C,C]4 [=E,C]2 | F6 z6 | %24
 [B,,B,]6 [B,,B,]4 [B,,B,]2 | [B,,B,]6 [D,B,]4 [D,B,]2 | [E,G,E]6 [E,G,E]4 [E,A,E]2 | [E,B,E]12 | %28
 [E,G,E]6 [=E,A,_D]4 [E,B,D]2 | [F,B,D]6 [G,B,D]4 [^F,B,E]2 | [F,B,F]6 [F,A,E]4 [B,,B,]2 | %31
 [B,,B,]12 |] %32
V:3
 x12 | x12 | x12 | x12 | x12 | x12 | x12 | x12 | x12 | z6 ^F,4 [^FA]2 | x12 | z6 A,6 | x12 | x12 | %14
 x12 | x12 | x12 | x12 | x12 | x12 | x12 | x12 | x12 | z6 E6 | x12 | x12 | x12 | x12 | x12 | x12 | %30
 x12 | x12 |] %32
V:4
 x12 | x12 | x12 | x12 | x12 | x12 | x12 | x12 | x12 | G,6 z6 | x10[K:bass] x2 | B,6 z6 | x12 | %13
 x12 | x12 | x12 | x12 | x12 | x12 | x12 | x12 | x12 | x12 | [F,A,]12 | x12 | x12 | x12 | x12 | %28
 x12 | x12 | x12 | x12 |] %32

